images/YFL.svg

<svg height="250" viewBox="0 0 250 250" width="250" xmlns="http://www.w3.org/2000/svg"><path d="m250 125c0 69.035156-55.964844 125-125 125s-125-55.964844-125-125 55.964844-125 125-125 125 55.964844 125 125zm0 0" fill="#3760d8"/><g fill="#fff"><path d="m177.800781 51.773438-14.625 5.027343 5.324219 16.574219-43.5-22.476562-58.726562 32.25v43.625l23.527343-8.273438-.152343-21.75 35.351562-18.800781 33.875 16.425781-16.875 6.226562 5.324219 15.222657 46.601562-16.574219zm0 0"/><path d="m72.199219 198.226562 14.625-5.027343-5.324219-16.574219 43.351562 22.476562 58.875-32.25v-43.625l-23.527343 8.273438.152343 21.75-35.5 18.800781-33.726562-16.425781 16.875-6.226562-5.324219-15.222657-46.601562 16.574219zm0 0"/></g></svg>

<!-- Generator: Adobe Illustrator 25.1.0, SVG Export Plug-In . SVG Version: 6.00 Build 0)  -->
<svg xmlns="http://www.w3.org/2000/svg" xmlns:xlink="http://www.w3.org/1999/xlink" width="250px" height="250px" viewBox="0 0 250 250" version="1.1">
<g id="surface1">
<path style=" stroke:none;fill-rule:nonzero;fill:rgb(21.568628%,37.64706%,84.705883%);fill-opacity:1;" d="M 250 125 C 250 194.035156 194.035156 250 125 250 C 55.964844 250 0 194.035156 0 125 C 0 55.964844 55.964844 0 125 0 C 194.035156 0 250 55.964844 250 125 Z M 250 125 "/>
<path style=" stroke:none;fill-rule:nonzero;fill:rgb(100%,100%,100%);fill-opacity:1;" d="M 177.800781 51.773438 L 163.175781 56.800781 L 168.5 73.375 L 125 50.898438 L 66.273438 83.148438 L 66.273438 126.773438 L 89.800781 118.5 L 89.648438 96.75 L 125 77.949219 L 158.875 94.375 L 142 100.601562 L 147.324219 115.824219 L 193.925781 99.25 Z M 177.800781 51.773438 "/>
<path style=" stroke:none;fill-rule:nonzero;fill:rgb(100%,100%,100%);fill-opacity:1;" d="M 72.199219 198.226562 L 86.824219 193.199219 L 81.5 176.625 L 124.851562 199.101562 L 183.726562 166.851562 L 183.726562 123.226562 L 160.199219 131.5 L 160.351562 153.25 L 124.851562 172.050781 L 91.125 155.625 L 108 149.398438 L 102.675781 134.175781 L 56.074219 150.75 Z M 72.199219 198.226562 "/>
</g>
</svg>
